public/images/social_media/twitter.svg

<svg width="20" height="19" viewBox="0 0 20 19" fill="none" xmlns="http://www.w3.org/2000/svg">
<rect x="0.705078" y="0.0163574" width="18.8852" height="18.8852" rx="9.44262" fill="#181A1C"/>
<path d="M8.41955 14.4399C12.6074 14.4399 14.8972 10.9698 14.8972 7.96231C14.8972 7.86316 14.8972 7.76401 14.8925 7.66959C15.3363 7.34854 15.7234 6.94723 16.0303 6.48926C15.6243 6.66867 15.1852 6.79142 14.7225 6.84808C15.1946 6.5648 15.5534 6.121 15.7234 5.58749C15.2843 5.84716 14.798 6.03601 14.2787 6.13988C13.8632 5.69608 13.2731 5.42224 12.6168 5.42224C11.3609 5.42224 10.3411 6.44204 10.3411 7.69791C10.3411 7.87732 10.36 8.05201 10.4025 8.21726C8.50925 8.12283 6.83319 7.21634 5.70952 5.83772C5.51594 6.17293 5.40263 6.5648 5.40263 6.98027C5.40263 7.76873 5.80394 8.46749 6.41771 8.87352C6.04473 8.86408 5.69535 8.76021 5.38847 8.59024C5.38847 8.59968 5.38847 8.60913 5.38847 8.61857C5.38847 9.72336 6.1722 10.6393 7.21561 10.8517C7.02676 10.9037 6.82374 10.932 6.61601 10.932C6.46965 10.932 6.32801 10.9178 6.18637 10.8895C6.47437 11.796 7.31476 12.4523 8.31096 12.4712C7.53194 13.0802 6.54991 13.4437 5.48289 13.4437C5.29876 13.4437 5.11935 13.4343 4.93994 13.4107C5.93614 14.0622 7.13535 14.4399 8.41955 14.4399Z" fill="white"/>
</svg>

<svg xmlns="http://www.w3.org/2000/svg" width="20" height="19" fill="none"><rect width="18.885" height="18.885" x=".705" y=".016" fill="#181A1C" rx="9.443"/><path fill="#fff" d="M8.42 14.44c4.187 0 6.477-3.47 6.477-6.478 0-.099 0-.198-.005-.292.444-.321.831-.723 1.138-1.18a4.62 4.62 0 0 1-1.308.358c.473-.283.831-.727 1.001-1.26a4.61 4.61 0 0 1-1.444.552 2.277 2.277 0 0 0-3.876 2.077 6.458 6.458 0 0 1-4.693-2.38 2.284 2.284 0 0 0-.307 1.143c0 .789.4 1.487 1.015 1.894a2.236 2.236 0 0 1-1.03-.284v.029c0 1.104.784 2.02 1.828 2.233a2.267 2.267 0 0 1-1.03.037 2.273 2.273 0 0 0 2.125 1.582 4.577 4.577 0 0 1-3.371.94 6.343 6.343 0 0 0 3.48 1.029Z"/></svg>
